src/wp-content/themes/aquaban/assets/images/tel.svg

<svg width="10" height="10" viewBox="0 0 10 10" fill="none" xmlns="http://www.w3.org/2000/svg">
<path d="M1.92071 0H1.97455C2.23769 0.0113281 2.49515 0.116602 2.68467 0.299805C3.13421 0.749805 3.5853 1.19785 4.03464 1.64766C4.19558 1.80625 4.30228 2.02031 4.3203 2.24609C4.35084 2.56484 4.20615 2.89902 3.93988 3.08184C3.80126 3.18359 3.62446 3.21113 3.48291 3.30801C3.2323 3.47187 3.05726 3.75957 3.05961 4.06211C3.05609 4.15859 3.07978 4.25293 3.10875 4.34414C3.20821 4.70723 3.40322 5.03574 3.62544 5.33672C4.03112 5.86738 4.53508 6.32949 5.12029 6.65625C5.36366 6.78125 5.62249 6.90898 5.90247 6.90938C6.22141 6.9084 6.53937 6.74141 6.70736 6.46836C6.79174 6.33086 6.82189 6.16582 6.92135 6.03652C7.14083 5.72832 7.56256 5.59551 7.9236 5.69941C8.091 5.74434 8.24019 5.84121 8.36138 5.96348C8.78585 6.38633 9.20954 6.80977 9.63381 7.23262C9.74032 7.33672 9.84703 7.44648 9.90948 7.58379C10.0673 7.91289 10.0125 8.32383 9.79397 8.61289C9.73092 8.70371 9.64654 8.77617 9.56979 8.85488C9.36421 9.05996 9.15844 9.26523 8.95286 9.47031C8.83754 9.58359 8.72848 9.70645 8.58869 9.79062C8.35766 9.93574 8.08219 9.99043 7.81258 10H7.69237C7.36971 9.98555 7.05233 9.91562 6.74397 9.82246C6.17324 9.63984 5.63561 9.36699 5.12577 9.05469C4.47477 8.6541 3.87076 8.18184 3.30337 7.67109C2.32012 6.77109 1.43691 5.74922 0.77397 4.59023C0.494383 4.09004 0.251801 3.56445 0.109854 3.00781C0.0205739 2.64473 -0.0364007 2.26484 0.0268391 1.89238C0.0683464 1.6334 0.177401 1.37988 0.364379 1.19199C0.64377 0.912305 0.924532 0.633789 1.20412 0.354102C1.3026 0.254687 1.40715 0.15625 1.53539 0.0964844C1.65502 0.0361328 1.78835 0.0117188 1.92071 0Z" fill="#00AFEA"/>
</svg>

<svg width="10" height="10" fill="none" xmlns="http://www.w3.org/2000/svg"><path d="M1.92 0h.055c.263.011.52.117.71.3l1.35 1.348c.16.158.267.372.285.598a.922.922 0 01-.38.836c-.139.102-.316.13-.457.226a.918.918 0 00-.423.754c-.004.097.02.19.049.282.1.363.294.692.516.993.406.53.91.992 1.495 1.32.244.124.502.252.782.252a.96.96 0 00.805-.44c.085-.138.115-.303.214-.432a.937.937 0 011.003-.338.984.984 0 01.437.264l1.273 1.27c.106.104.213.213.275.35.158.33.103.74-.115 1.03-.063.09-.147.163-.224.242l-.617.615c-.115.114-.225.236-.364.32-.231.146-.507.2-.776.21h-.12a3.894 3.894 0 01-.949-.178 7.491 7.491 0 01-1.618-.767c-.651-.4-1.255-.873-1.823-1.384-.983-.9-1.866-1.922-2.529-3.08C.494 4.09.252 3.563.11 3.007c-.09-.363-.146-.743-.083-1.116a1.27 1.27 0 01.337-.7l.84-.838c.099-.1.203-.198.331-.258.12-.06.253-.084.386-.096z" fill="#00AFEA"/></svg>
